X:1
T:Title
%%score { ( 1 4 ) | ( 2 3 ) }
L:1/8
M:3/4
K:D
V:1 treble nm="Grand Piano"
V:4 treble 
V:2 bass 
V:3 bass 
V:1
 z2 z2[Q:1/4=94] [DA]2 | [FA]3 A GG | F4 F2 | E4 E2 | A4 A2 | B3 c dB | A4 A2 | B3 A GF | E4 z2 | %9
 F2 FF GF | G[EG] [EA][FA] [GB]2 | [Ad]2 [Gd][Fd] [Ac]B | z2 =G2[K:bass] z2 |[M:2/4] [F,D]4 |] %14
V:2
 z2 z2 [D,F,]2 | [D,A,]3 [F,A,D] [G,B,E][A,CE] | [B,D]4 [A,D]2 | [^G,B,D]4 [=G,^A,C]2 | %4
 [F,A,D]4 [F,A,D]2 | [G,D]3 [E,G,E] [F,A,D][G,D] | [F,A,D]4 [F,A,D]2 | D4 .[G,E]2 | [A,C]4 z2 | %9
 [D,A,D]2 [D,A,D][D,^A,D] [D,B,D][D,A,D] | [D,B,D][D,B,] [D,=C][D,C] [G,B,]2 | %11
 [F,A,]2 [E,D][D,D] [F,D][K:treble][G,DG] | [A,DF][B,D=F][K:bass] E-[=A,E] z C |[M:2/4] D,4 |] %14
V:3
 x6 | x6 | x6 | x6 | x6 | x6 | x6 | G,3 [F,A,] B,-[^G,B,D] | x6 | x6 | x6 | x5[K:treble] x | %12
 z2[K:bass] .[^A,D]2 A,,2 |[M:2/4] x4 |] %14
V:4
 x6 | x6 | x6 | x6 | x6 | x6 | x6 | x6 | x6 | x6 | x6 | x6 | A^G z C[K:bass] .[G,B,E]2 | %13
[M:2/4] x4 |] %14

